X: 01054
T: IAIN BAIN, THE PIPER
C: Bob McQuillen May'75
B: Bob's Note Book 1 #54
%R: reel
Z: 2019 John Chambers <jc:trillian.mit.edu>
M: C
L: 1/8
K: G
d2 \
| gdBd edBd | gdeg d2Bd | gdBd edeg | dedB A2de |
| gdBd edBd | egab a2ga | bgag egdc | BGAF G2 :|
|: dc \
| BGdG BGdG | Bcde d2BA | GABc defg | agab a2ga |
| bgag bgag | egfe dedc | Bdgb cdfa | g2b2 g2 :|
%%begintext align
%% You should hear the marvelous
%% music when Iain plays his beautiful
%% Northumbrian Pipes. Such a joy!
%%endtext

%%sep 1 1 500

%%sep 1 1 500

